svg/alarm-clock-off.svg

<?xml version="1.0" encoding="UTF-8"?>
<svg xmlns="http://www.w3.org/2000/svg" xmlns:xlink="http://www.w3.org/1999/xlink" width="32" height="32" viewBox="0 0 32 32">
<path fill-rule="nonzero" fill="rgb(0%, 0%, 0%)" fill-opacity="1" d="M 1.921875 1.28125 C 1.664062 1.28125 1.429688 1.433594 1.332031 1.675781 C 1.230469 1.914062 1.285156 2.1875 1.46875 2.371094 L 29.628906 30.53125 C 29.746094 30.652344 29.910156 30.71875 30.078125 30.71875 C 30.339844 30.722656 30.574219 30.566406 30.671875 30.328125 C 30.773438 30.085938 30.714844 29.8125 30.53125 29.628906 L 26.523438 25.617188 C 28.410156 23.25 29.441406 20.308594 29.441406 17.28125 C 29.441406 9.871094 23.410156 3.839844 16 3.839844 C 12.96875 3.835938 10.027344 4.867188 7.664062 6.761719 L 6.941406 6.035156 L 10.210938 2.765625 L 10.859375 2.054688 L 9.945312 1.699219 C 9.902344 1.675781 9.855469 1.65625 9.808594 1.640625 C 7.703125 0.90625 5.363281 1.320312 3.632812 2.726562 L 2.371094 1.46875 C 2.25 1.347656 2.089844 1.28125 1.921875 1.28125 M 24.339844 1.28125 C 23.574219 1.277344 22.8125 1.414062 22.09375 1.679688 L 21.09375 2.070312 L 29.230469 10.210938 L 29.945312 10.859375 L 30.300781 9.941406 C 30.320312 9.898438 30.339844 9.855469 30.355469 9.808594 C 31.164062 7.484375 30.578125 4.902344 28.84375 3.15625 C 27.648438 1.960938 26.027344 1.289062 24.339844 1.28125 M 2.011719 4.726562 C 1.175781 6.328125 1.054688 8.210938 1.675781 9.90625 L 2.070312 10.90625 L 5.128906 7.84375 Z M 5.816406 8.53125 C 3.714844 10.960938 2.558594 14.066406 2.558594 17.28125 C 2.558594 24.691406 8.589844 30.71875 16 30.71875 C 19.339844 30.71875 22.390625 29.488281 24.746094 27.460938 Z M 5.46875 27.550781 L 3.386719 29.628906 C 3.203125 29.8125 3.148438 30.085938 3.25 30.324219 C 3.347656 30.5625 3.582031 30.71875 3.839844 30.71875 C 4.011719 30.71875 4.171875 30.652344 4.292969 30.53125 L 6.398438 28.425781 C 6.078125 28.144531 5.765625 27.855469 5.46875 27.550781 M 5.46875 27.550781 "/>
</svg>

<svg role="img" viewBox="0 0 32 32" height="32" width="32" xmlns="http://www.w3.org/2000/svg"><path d="M1.922 1.281a.638.638 0 0 0-.453 1.09l28.16 28.16a.626.626 0 0 0 .45.188.637.637 0 0 0 .453-1.09l-4.009-4.012a13.382 13.382 0 0 0 2.918-8.336c0-7.41-6.03-13.441-13.441-13.441a13.3 13.3 0 0 0-8.336 2.922l-.723-.727 3.27-3.27.648-.71-.914-.356a.847.847 0 0 0-.136-.058 6.438 6.438 0 0 0-6.176 1.086L2.37 1.469a.633.633 0 0 0-.45-.188m22.419 0a6.35 6.35 0 0 0-2.246.399l-1 .39 8.136 8.14.715.65.356-.919c.02-.043.039-.086.054-.132a6.438 6.438 0 0 0-1.511-6.653 6.413 6.413 0 0 0-4.504-1.875M2.012 4.727a6.425 6.425 0 0 0-.336 5.18l.394 1 3.06-3.064ZM5.816 8.53a13.373 13.373 0 0 0-3.257 8.75c0 7.41 6.03 13.438 13.441 13.438 3.34 0 6.39-1.23 8.746-3.258Zm-.347 19.02-2.082 2.078a.638.638 0 0 0 .453 1.09.635.635 0 0 0 .453-.188l2.105-2.105c-.32-.281-.632-.57-.93-.875m0 0"/></svg>
